public/svgs/light/transporter-4.svg

<svg xmlns="http://www.w3.org/2000/svg" viewBox="0 0 512 512"><!-- Font Awesome Pro 6.0.0-alpha2 by @fontawesome - https://fontawesome.com License - https://fontawesome.com/license (Commercial License) --><path d="M144 224H368C376.844 224 384 216.844 384 208S376.844 192 368 192H144C135.156 192 128 199.156 128 208S135.156 224 144 224ZM176 160H336C344.844 160 352 152.844 352 144S344.844 128 336 128H176C167.156 128 160 135.156 160 144S167.156 160 176 160ZM80 384H64V368C64 359.156 56.844 352 48 352S32 359.156 32 368V384H16C7.156 384 0 391.156 0 400S7.156 416 16 416H32V432C32 440.844 39.156 448 48 448S64 440.844 64 432V416H80C88.844 416 96 408.844 96 400S88.844 384 80 384ZM224 96H288C296.844 96 304 88.844 304 80S296.844 64 288 64H224C215.156 64 208 71.156 208 80S215.156 96 224 96ZM224 32H288C296.844 32 304 24.844 304 16S296.844 0 288 0H224C215.156 0 208 7.156 208 16S215.156 32 224 32ZM368 448H144C117.531 448 96 469.531 96 496C96 504.844 103.156 512 112 512S128 504.844 128 496C128 487.172 135.172 480 144 480H368C376.828 480 384 487.172 384 496C384 504.844 391.156 512 400 512S416 504.844 416 496C416 469.531 394.469 448 368 448ZM496 160H480V144C480 135.156 472.844 128 464 128S448 135.156 448 144V160H432C423.156 160 416 167.156 416 176S423.156 192 432 192H448V208C448 216.844 455.156 224 464 224S480 216.844 480 208V192H496C504.844 192 512 184.844 512 176S504.844 160 496 160ZM400 256H112C103.156 256 96 263.156 96 272S103.156 288 112 288H400C408.844 288 416 280.844 416 272S408.844 256 400 256ZM176 416H336C344.844 416 352 408.844 352 400S344.844 384 336 384H176C167.156 384 160 391.156 160 400S167.156 416 176 416ZM176 352H336C344.844 352 352 344.844 352 336S344.844 320 336 320H176C167.156 320 160 327.156 160 336S167.156 352 176 352Z"/></svg>

<svg xmlns="http://www.w3.org/2000/svg" viewBox="0 0 512 512"><!--! Font Awesome Pro 6.5.1 by @fontawesome - https://fontawesome.com License - https://fontawesome.com/license (Commercial License) Copyright 2023 Fonticons, Inc. --><path d="M208 16c0 8.8 7.2 16 16 16h64c8.8 0 16-7.2 16-16s-7.2-16-16-16H224c-8.8 0-16 7.2-16 16zm0 64c0 8.8 7.2 16 16 16h64c8.8 0 16-7.2 16-16s-7.2-16-16-16H224c-8.8 0-16 7.2-16 16zm-48 64c0 8.8 7.2 16 16 16H336c8.8 0 16-7.2 16-16s-7.2-16-16-16H176c-8.8 0-16 7.2-16 16zm-32 64c0 8.8 7.2 16 16 16H368c8.8 0 16-7.2 16-16s-7.2-16-16-16H144c-8.8 0-16 7.2-16 16zM96 272c0 8.8 7.2 16 16 16H400c8.8 0 16-7.2 16-16s-7.2-16-16-16H112c-8.8 0-16 7.2-16 16zm64 64c0 8.8 7.2 16 16 16H336c8.8 0 16-7.2 16-16s-7.2-16-16-16H176c-8.8 0-16 7.2-16 16zm0 64c0 8.8 7.2 16 16 16H336c8.8 0 16-7.2 16-16s-7.2-16-16-16H176c-8.8 0-16 7.2-16 16zM464 128c-8.8 0-16 7.2-16 16v16H432c-8.8 0-16 7.2-16 16s7.2 16 16 16h16v16c0 8.8 7.2 16 16 16s16-7.2 16-16V192h16c8.8 0 16-7.2 16-16s-7.2-16-16-16H480V144c0-8.8-7.2-16-16-16zM48 352c-8.8 0-16 7.2-16 16v16H16c-8.8 0-16 7.2-16 16s7.2 16 16 16H32v16c0 8.8 7.2 16 16 16s16-7.2 16-16V416H80c8.8 0 16-7.2 16-16s-7.2-16-16-16H64V368c0-8.8-7.2-16-16-16zm80 144c0-8.8 7.2-16 16-16H368c8.8 0 16 7.2 16 16s7.2 16 16 16s16-7.2 16-16c0-26.5-21.5-48-48-48H144c-26.5 0-48 21.5-48 48c0 8.8 7.2 16 16 16s16-7.2 16-16z"/></svg>
